X: 1
T:Ian Powrie
R:Reel
O:Shetland
O:Scotland
M:4/4
K:D
D2DF AFF2|d2Ad fdd2|dBBd dAAd\
|1 ceAc dBAF :|ceAc d4 ::
f2gf feef|d2Bd dAAd|dBBd dAAd\
|1 ceAc egfe :|2 ceAc d4 :|
